X:3450
T:Lachine (P. Bouffard)
O:england
M:2/4
L:1/8
K:G
E/F/|GG BA/G/|AA cB/A/|BG/B/ dc/B/|A/B/c/e/ d/c/B/A/|\
GG BA/G/|AA cB/A/|BG/B/ dc/B/|A/B/A/F/ G:|
|:A/B/|cc ed/c/|BG/B/ dc/B/|A/G/A/B/ cB/A/|B/c/d/e/ d/c/B/G/|\
cc ed/c/|BG/B/ dc/B/|A/G/A/B/ c/A/F/D/|G3:|


